assets/flags/EG.svg

<?xml version="1.0" encoding="UTF-8"?>
<svg width="21px" height="15px" viewBox="0 0 21 15" version="1.1" xmlns="http://www.w3.org/2000/svg" xmlns:xlink="http://www.w3.org/1999/xlink">
    <!-- Generator: sketchtool 46 (44423) - http://www.bohemiancoding.com/sketch -->
    <title>EG</title>
    <desc>Created with sketchtool.</desc>
    <defs>
        <linearGradient x1="50%" y1="0%" x2="50%" y2="100%" id="linearGradient-1">
            <stop stop-color="#FFFFFF" offset="0%"></stop>
            <stop stop-color="#F0F0F0" offset="100%"></stop>
        </linearGradient>
        <linearGradient x1="50%" y1="0%" x2="50%" y2="100%" id="linearGradient-2">
            <stop stop-color="#E41D33" offset="0%"></stop>
            <stop stop-color="#CE1126" offset="100%"></stop>
        </linearGradient>
        <linearGradient x1="50%" y1="0%" x2="50%" y2="100%" id="linearGradient-3">
            <stop stop-color="#262626" offset="0%"></stop>
            <stop stop-color="#0D0D0D" offset="100%"></stop>
        </linearGradient>
    </defs>
    <g id="Symbols" stroke="none" stroke-width="1" fill="none" fill-rule="evenodd">
        <g id="EG">
            <rect id="FlagBackground" fill="url(#linearGradient-1)" x="0" y="0" width="21" height="15"></rect>
            <rect id="Rectangle-2" fill="url(#linearGradient-2)" x="0" y="0" width="21" height="5"></rect>
            <rect id="Rectangle-2" fill="url(#linearGradient-3)" x="0" y="10" width="21" height="5"></rect>
            <rect id="Rectangle-2" fill="url(#linearGradient-1)" x="0" y="5" width="21" height="5"></rect>
            <path d="M8,6.49538898 C8,6.2217932 8.23193359,6 8.5,6 L8.74765778,6 C8.88702254,6 9.04614258,6.09228516 9.1159668,6.23193359 L9.5,7 C9.5,7 10.0493306,6 10.5,6 C11,6 11.5,7 11.5,7 L11.8840332,6.23193359 C11.9480799,6.10384021 12.1070175,6 12.2523422,6 L12.5,6 C12.7761424,6 13,6.2157526 13,6.49538898 L13,8.50461102 C13,8.7782068 12.8160706,8.87738037 12.5901184,8.72674561 L11.5,8 L11,8 L11,8.5 C11,8.77614237 10.7680664,9 10.5,9 L10.5,9 C10.2238576,9 10,8.76806641 10,8.5 L10,8 L9.5,8 L8.40988159,8.72674561 C8.18351024,8.87765984 8,8.7842474 8,8.50461102 L8,6.49538898 Z" id="Rectangle-129" fill-opacity="0.25" fill="#F4B32E"></path>
            <path d="M12.5,8.06574145 L12.5,6.5 L12.309017,6.5 L11.7696097,7.57881459 L12.5,8.06574145 Z M8.69098301,6.5 L8.5006969,6.5 C8.50035241,6.49933214 8.5,6.49797367 8.5,6.49538898 L8.5,8.06574145 L9.2303903,7.57881459 L8.69098301,6.5 Z M10.5,7.5 L10.5,8.5 L10.5,7.5 L11.190983,7.5 L11.0527864,7.2236068 C11.0025448,7.12312361 10.9070022,6.95933623 10.7875,6.8 C10.6669136,6.63921807 10.5562629,6.5394688 10.5157356,6.50953831 C10.4427553,6.55637767 10.3378325,6.66219008 10.2262706,6.80620317 C10.0998497,6.96939732 9.99539579,7.13667289 9.93823177,7.24073412 L9.79580908,7.5 L10.5,7.5 Z M11.3738698,6.7763932 C11.453181,6.90636206 11.5,7 11.5,7 L11.6118034,6.7763932 C11.6118034,6.7763932 11.8433728,6.58071737 11.7686406,6.46271887 L11.8840332,6.23193359 C11.9480799,6.10384021 12.1070175,6 12.2523422,6 L12.5,6 C12.7761424,6 13,6.2157526 13,6.49538898 L13,8.50461102 C13,8.7782068 12.8160706,8.87738037 12.5901184,8.72674561 L11.5,8 L11,8 L11,8.5 C11,8.77614237 10.7680664,9 10.5,9 C10.2238576,9 10,8.76806641 10,8.5 L10,8 L9.5,8 L8.40988159,8.72674561 C8.18351024,8.87765984 8,8.7842474 8,8.50461102 L8,6.49538898 C8,6.2217932 8.23193359,6 8.5,6 L8.74765778,6 C8.88702254,6 9.04614258,6.09228516 9.1159668,6.23193359 L9.23620652,6.47241305 C9.1647889,6.58029712 9.38273722,6.76547444 9.38273722,6.76547444 L9.5,7 C9.5,7 9.55301337,6.90349461 9.63961349,6.77044324 L9.81767445,6.5173149 C10.0131068,6.26167861 10.2694622,6 10.5,6 C10.7509295,6 11.001859,6.25186245 11.1895888,6.50278847 L11.3738698,6.7763932 Z" id="Rectangle-129" fill="#C6A846" fill-rule="nonzero"></path>
        </g>
    </g>
</svg>

<svg width="21" height="15" xmlns="http://www.w3.org/2000/svg"><defs><linearGradient x1="50%" y1="0%" x2="50%" y2="100%" id="a"><stop stop-color="#FFF" offset="0%"/><stop stop-color="#F0F0F0" offset="100%"/></linearGradient><linearGradient x1="50%" y1="0%" x2="50%" y2="100%" id="b"><stop stop-color="#E41D33" offset="0%"/><stop stop-color="#CE1126" offset="100%"/></linearGradient><linearGradient x1="50%" y1="0%" x2="50%" y2="100%" id="c"><stop stop-color="#262626" offset="0%"/><stop stop-color="#0D0D0D" offset="100%"/></linearGradient></defs><g fill="none" fill-rule="evenodd"><path fill="url(#a)" d="M0 0h21v15H0z"/><path fill="url(#b)" d="M0 0h21v5H0z"/><path fill="url(#c)" d="M0 10h21v5H0z"/><path fill="url(#a)" d="M0 5h21v5H0z"/><path d="M8 6.495C8 6.222 8.232 6 8.5 6h.248c.139 0 .298.092.368.232L9.5 7s.55-1 1-1c.5 0 1 1 1 1l.384-.768A.445.445 0 0 1 12.252 6h.248c.276 0 .5.216.5.495v2.01c0 .273-.184.372-.41.222L11.5 8H11v.5c0 .276-.232.5-.5.5a.505.505 0 0 1-.5-.5V8h-.5l-1.09.727c-.226.15-.41.057-.41-.222v-2.01z" fill-opacity=".25" fill="#F4B32E"/><path d="M12.5 8.066V6.5h-.191l-.54 1.079.731.487zM8.691 6.5h-.19L8.5 6.495v1.57l.73-.486L8.691 6.5zm1.809 1v1-1h.691l-.138-.276c-.05-.1-.146-.265-.266-.424-.12-.16-.23-.26-.271-.29a1.387 1.387 0 0 0-.29.296c-.126.163-.23.33-.288.435l-.142.259h.704zm.874-.724c.08.13.126.224.126.224l.112-.224s.231-.195.157-.313l.115-.231A.445.445 0 0 1 12.252 6h.248c.276 0 .5.216.5.495v2.01c0 .273-.184.372-.41.222L11.5 8H11v.5c0 .276-.232.5-.5.5a.505.505 0 0 1-.5-.5V8h-.5l-1.09.727c-.226.15-.41.057-.41-.222v-2.01C8 6.222 8.232 6 8.5 6h.248c.139 0 .298.092.368.232l.12.24c-.071.108.147.293.147.293L9.5 7s.053-.097.14-.23l.178-.253c.195-.255.451-.517.682-.517.25 0 .502.252.69.503l.184.273z" fill="#C6A846" fill-rule="nonzero"/></g></svg>
